rospo-icon-theme-classic-common/16x16/apps/phoronix-test-suite.svg

<svg height="16" width="16" xmlns="http://www.w3.org/2000/svg"><path d="m1.6 0c-.8864 0-1.6.7136-1.6 1.6v8 4.8c0 .8864.6136 1.6 1.5 1.6s1.4630987-.714368 1.5-1.6v-2.4h11.4c.8864 0 1.6-.7136 1.6-1.6v-8.8c0-.8864-.7136-1.6-1.6-1.6z" fill="#7cb320"/><path d="m11.5 5-2 2h1.5v.9999844h-4.75-.75-1.5v.082031c0 .785719.700593.9179846 1.5.9179846h5c .799407 0 1.5-.1322656 1.5-.9179844v-1.0820156h1.5z" fill="#fff"/><circle cx="8" cy="6" fill="#3f3f3f" r="1"/><path d="m4.5 6.9999844 2-2h-1.5v-.9999844h4.75.75 1.5v-.082031c0-.785719-.700593-.9179846-1.5-.9179846h-5c-.799407 0-1.5.1322656-1.5.9179844v1.0820156h-1.5z" fill="#fff"/></svg>

<svg xmlns="http://www.w3.org/2000/svg" width="16" height="16" version="1">
 <path style="fill:#7cb320" d="M 1.6,0 C 0.7136,0 0,0.7136 0,1.6 l 0,8 0,4.8 C 0,15.2864 0.6136,16 1.5,16 2.3864,16 2.9630987,15.285632 3,14.4 L 3,12 14.4,12 C 15.2864,12 16,11.2864 16,10.4 L 16,1.6 C 16,0.7136 15.2864,0 14.4,0 Z"/>
 <path style="fill:#ffffff" d="m 11.5,5 -2,2 1.5,0 0,0.9999844 -4.75,0 -0.75,0 -1.5,0 0,0.082031 C 4,8.8677344 4.700593,9 5.5,9 l 5,0 C 11.299407,9 12,8.8677344 12,8.0820156 L 12,7 13.5,7 Z"/>
 <circle style="fill:#3f3f3f" cx="8" cy="6" r="1"/>
 <path style="fill:#ffffff" d="m 4.5,6.9999844 2,-2 -1.5,0 L 5,4 9.75,4 10.5,4 12,4 12,3.917969 C 12,3.13225 11.299407,2.9999844 10.5,2.9999844 l -5,0 C 4.700593,2.9999844 4,3.13225 4,3.9179688 l 0,1.0820156 -1.5,0 z"/>
</svg>
